#src/img/common/logo.svg

<svg width="160" height="36" viewBox="0 0 160 36" fill="none" xmlns="http://www.w3.org/2000/svg">
  <path d="M52.0688 36H3.92836C1.75816 36 0 34.134 0 31.8321V4.16673C0 1.86595 1.75816 0 3.92836 0H52.07C54.239 0 55.9972 1.86595 55.9972 4.16673V31.8321C55.9972 34.134 54.239 36 52.0688 36Z" fill="url(#paint0_linear)"/>
  <path d="M10.2075 9.79138V11.5562C10.9362 10.8303 11.7224 10.2871 12.5697 9.92414C13.4157 9.56118 14.3217 9.3797 15.2852 9.3797C17.3808 9.3797 19.1622 10.169 20.6281 11.7475C22.0941 13.326 22.8277 15.3503 22.8277 17.8203C22.8277 20.2027 22.0696 22.1953 20.5548 23.7982C19.0387 25.4011 17.2438 26.2025 15.1666 26.2025C14.241 26.2025 13.3803 26.0381 12.5831 25.7104C11.786 25.3816 10.9937 24.8457 10.2063 24.1003V31.6433H6.20703V9.79138H10.2075ZM14.444 13.086C13.1749 13.086 12.121 13.5172 11.2847 14.3795C10.4484 15.2419 10.0302 16.3697 10.0302 17.7619C10.0302 19.1833 10.4484 20.333 11.2847 21.21C12.121 22.0869 13.1737 22.5266 14.444 22.5266C15.674 22.5266 16.7096 22.0809 17.5507 21.1881C18.3919 20.2965 18.8125 19.1589 18.8125 17.7765C18.8125 16.4038 18.3992 15.2796 17.5727 14.4015C16.7462 13.5245 15.7033 13.086 14.444 13.086Z" fill="white"/>
  <path d="M24.7346 9.79138H28.1886V11.8059C28.5627 11.0118 29.0591 10.4089 29.679 9.99722C30.2989 9.58554 30.9774 9.3797 31.7159 9.3797C32.238 9.3797 32.7833 9.51733 33.3543 9.79138L32.0998 13.2468C31.6279 13.0117 31.2391 12.8936 30.9334 12.8936C30.3135 12.8936 29.789 13.276 29.3611 14.0409C28.9332 14.8058 28.7192 16.3052 28.7192 18.5402L28.7339 19.3197V25.7896H24.7334V9.79138H24.7346Z" fill="white"/>
  <path d="M41.9246 9.3797C43.4395 9.3797 44.8639 9.75727 46.1978 10.5124C47.5317 11.2676 48.5721 12.2919 49.3192 13.5854C50.0674 14.8789 50.4416 16.2759 50.4416 17.7765C50.4416 19.2868 50.065 20.6984 49.3118 22.0114C48.5587 23.3256 47.5329 24.3524 46.2344 25.0917C44.936 25.8322 43.5043 26.2025 41.9393 26.2025C39.637 26.2025 37.671 25.3865 36.0425 23.7544C34.4139 22.1223 33.5996 20.1394 33.5996 17.8069C33.5996 15.3076 34.519 13.2237 36.3603 11.5575C37.973 10.1056 39.8278 9.3797 41.9246 9.3797ZM41.9906 13.1591C40.7386 13.1591 39.6957 13.5927 38.8631 14.4599C38.0305 15.3271 37.6136 16.4379 37.6136 17.7899C37.6136 19.182 38.0256 20.3099 38.8484 21.1722C39.6713 22.0346 40.7142 22.4657 41.976 22.4657C43.2377 22.4657 44.288 22.0297 45.1255 21.1576C45.963 20.2855 46.3824 19.1626 46.3824 17.7899C46.3824 16.4172 45.9703 15.3028 45.1475 14.4441C44.3247 13.5878 43.272 13.1591 41.9906 13.1591Z" fill="white"/>
  <path d="M59.7744 9.79138H63.8042V11.6293C64.4938 10.8742 65.2592 10.3115 66.1016 9.93875C66.944 9.56605 67.8622 9.3797 68.8562 9.3797C69.86 9.3797 70.766 9.62451 71.5742 10.1154C72.3811 10.6062 73.0316 11.3212 73.5243 12.2627C74.1637 11.3212 74.9499 10.6062 75.8803 10.1154C76.8107 9.62573 77.828 9.3797 78.9308 9.3797C80.0728 9.3797 81.0778 9.644 81.9446 10.1738C82.8115 10.7036 83.4338 11.3942 83.8128 12.2468C84.1919 13.0994 84.3814 14.4867 84.3814 16.4087V25.7908H80.3222V17.673C80.3222 15.8594 80.096 14.6317 79.6436 13.9898C79.1912 13.3479 78.5114 13.0263 77.6067 13.0263C76.9183 13.0263 76.3009 13.2224 75.7544 13.6146C75.2079 14.0068 74.8019 14.5488 74.5366 15.2394C74.2713 15.93 74.138 17.0408 74.138 18.5706V25.7908H70.0789V18.042C70.0789 16.6109 69.9725 15.5744 69.761 14.9325C69.5482 14.2906 69.2304 13.8132 68.8061 13.4989C68.3818 13.1859 67.8695 13.0288 67.2668 13.0288C66.5955 13.0288 65.9867 13.2273 65.4389 13.6244C64.8912 14.0214 64.4816 14.5781 64.2114 15.293C63.94 16.0092 63.8042 17.1358 63.8042 18.6754V25.7921H59.7744V9.79138V9.79138Z" fill="black"/>
  <path d="M99.2256 9.79138H103.255V25.7896H99.2256V24.0991C98.4394 24.8445 97.6508 25.3804 96.8597 25.7092C96.0687 26.0381 95.2104 26.2013 94.2873 26.2013C92.2137 26.2013 90.4201 25.3999 88.9052 23.797C87.3916 22.1941 86.6348 20.2015 86.6348 17.8191C86.6348 15.349 87.3671 13.3248 88.8319 11.7462C90.2966 10.1677 92.0755 9.37848 94.1687 9.37848C95.1321 9.37848 96.0357 9.55996 96.8817 9.92292C97.7266 10.2859 98.5079 10.8303 99.2268 11.555V9.79138H99.2256ZM94.9891 13.086C93.7432 13.086 92.7089 13.5245 91.8848 14.4027C91.0607 15.2796 90.6487 16.405 90.6487 17.7777C90.6487 19.1601 91.0681 20.2977 91.9068 21.1893C92.7455 22.0821 93.7775 22.5279 95.0038 22.5279C96.2692 22.5279 97.3182 22.0894 98.1521 21.2112C98.9859 20.3343 99.4028 19.1845 99.4028 17.7631C99.4028 16.3709 98.9859 15.2443 98.1521 14.3807C97.3182 13.5172 96.2643 13.086 94.9891 13.086Z" fill="black"/>
  <path d="M106.868 9.79138H110.322V11.8059C110.697 11.0118 111.193 10.4089 111.813 9.99722C112.433 9.58554 113.111 9.3797 113.85 9.3797C114.372 9.3797 114.917 9.51733 115.488 9.79138L114.234 13.2468C113.762 13.0117 113.373 12.8936 113.067 12.8936C112.447 12.8936 111.923 13.276 111.495 14.0409C111.067 14.8058 110.853 16.3052 110.853 18.5402L110.868 19.3197V25.7896H106.867V9.79138H106.868Z" fill="black"/>
  <path d="M117.179 3.61618H121.209V16.388L127.142 9.79258H132.203L125.285 17.4598L133.03 25.7908H128.028L121.209 18.4171V25.7908H117.179V3.61618Z" fill="black"/>
  <path d="M149.656 18.9531H136.71C136.897 20.0907 137.396 20.9944 138.208 21.6655C139.02 22.3366 140.055 22.6728 141.315 22.6728C142.82 22.6728 144.115 22.1491 145.197 21.0992L148.592 22.6874C147.746 23.8835 146.732 24.7677 145.551 25.3414C144.37 25.9151 142.968 26.2013 141.344 26.2013C138.825 26.2013 136.773 25.4096 135.189 23.8262C133.605 22.2428 132.812 20.26 132.812 17.8776C132.812 15.4367 133.602 13.41 135.182 11.7974C136.762 10.1848 138.741 9.37848 141.123 9.37848C143.651 9.37848 145.709 10.1848 147.292 11.7974C148.877 13.41 149.669 15.5403 149.669 18.187L149.656 18.9531ZM145.626 15.7912C145.359 14.8996 144.835 14.1737 144.051 13.6146C143.267 13.0556 142.358 12.7767 141.323 12.7767C140.2 12.7767 139.214 13.0909 138.366 13.7182C137.834 14.1104 137.341 14.801 136.888 15.7912H145.626Z" fill="black"/>
  <path d="M152.922 3.89511H156.952V9.79138H159.343V13.2468H156.952V25.7896H152.922V13.2468H150.855V9.79138H152.922V3.89511Z" fill="black"/>
  <defs>
    <linearGradient id="paint0_linear" x1="0" y1="17.9997" x2="55.9971" y2="17.9997" gradientUnits="userSpaceOnUse">
      <stop stop-color="#EF4136"/>
      <stop offset="1" stop-color="#BE1E2D"/>
    </linearGradient>
  </defs>
</svg>

<svg width="160" height="36" fill="none" xmlns="http://www.w3.org/2000/svg"><path d="M52.069 36H3.929C1.758 36 0 34.134 0 31.832V4.167C0 1.866 1.758 0 3.928 0H52.07c2.169 0 3.927 1.866 3.927 4.167v27.665c0 2.302-1.758 4.168-3.928 4.168z" fill="url(#paint0_linear)"/><path d="M10.207 9.791v1.765c.73-.726 1.515-1.269 2.363-1.632a6.817 6.817 0 012.715-.544c2.096 0 3.877.789 5.343 2.367 1.466 1.579 2.2 3.603 2.2 6.073 0 2.383-.758 4.375-2.273 5.978-1.516 1.603-3.311 2.405-5.388 2.405a6.727 6.727 0 01-2.584-.493c-.797-.328-1.59-.864-2.377-1.61v7.543H6.207V9.791h4zm4.237 3.295c-1.27 0-2.323.431-3.16 1.293-.836.863-1.254 1.99-1.254 3.383 0 1.421.418 2.571 1.255 3.448.836.877 1.889 1.317 3.159 1.317 1.23 0 2.266-.446 3.107-1.339.84-.891 1.262-2.03 1.262-3.412 0-1.372-.414-2.496-1.24-3.374-.827-.877-1.87-1.316-3.129-1.316zm10.291-3.295h3.454v2.015c.374-.794.87-1.397 1.49-1.809a3.605 3.605 0 012.037-.617c.522 0 1.067.137 1.638.411L32.1 13.247c-.472-.235-.86-.353-1.167-.353-.62 0-1.144.382-1.572 1.147-.428.765-.642 2.264-.642 4.5l.015.779v6.47h-4v-16zm17.19-.411c1.515 0 2.939.377 4.273 1.132 1.334.756 2.374 1.78 3.121 3.073a8.229 8.229 0 011.123 4.191 8.37 8.37 0 01-1.13 4.235 8.126 8.126 0 01-3.078 3.08c-1.298.741-2.73 1.111-4.295 1.111-2.302 0-4.268-.816-5.897-2.448-1.628-1.632-2.442-3.615-2.442-5.947 0-2.5.919-4.583 2.76-6.25 1.613-1.451 3.468-2.177 5.565-2.177zm.066 3.78c-1.252 0-2.295.433-3.128 1.3-.832.867-1.25 1.978-1.25 3.33 0 1.392.413 2.52 1.235 3.382.823.863 1.866 1.294 3.128 1.294s2.312-.436 3.15-1.308c.837-.873 1.256-1.995 1.256-3.368 0-1.373-.412-2.487-1.234-3.346-.823-.856-1.876-1.285-3.157-1.285z" fill="#fff"/><path d="M59.774 9.791h4.03v1.838c.69-.755 1.455-1.317 2.298-1.69a6.723 6.723 0 012.754-.56c1.004 0 1.91.246 2.718.736.807.491 1.458 1.206 1.95 2.148.64-.942 1.426-1.657 2.356-2.148a6.451 6.451 0 013.05-.735c1.143 0 2.148.264 3.015.794s1.489 1.22 1.868 2.073c.379.852.568 2.24.568 4.162v9.382h-4.059v-8.118c0-1.814-.226-3.041-.678-3.683-.453-.642-1.133-.964-2.037-.964a3.1 3.1 0 00-1.853.589c-.546.392-.952.934-1.217 1.624-.266.691-.399 1.802-.399 3.332v7.22h-4.06v-7.749c0-1.431-.106-2.468-.317-3.11-.213-.641-.53-1.119-.955-1.433-.424-.313-.936-.47-1.54-.47a3.04 3.04 0 00-1.827.595c-.548.397-.957.954-1.228 1.669-.271.716-.407 1.843-.407 3.382v7.117h-4.03v-16zm39.452 0h4.029V25.79h-4.03V24.1c-.786.744-1.574 1.28-2.365 1.61a6.636 6.636 0 01-2.573.491c-2.073 0-3.867-.801-5.382-2.404-1.513-1.603-2.27-3.596-2.27-5.978 0-2.47.732-4.494 2.197-6.073 1.465-1.578 3.244-2.368 5.337-2.368.963 0 1.867.182 2.713.545.845.363 1.626.907 2.345 1.632V9.791h-.001zm-4.237 3.295c-1.246 0-2.28.438-3.104 1.317-.824.877-1.236 2.002-1.236 3.375 0 1.382.42 2.52 1.258 3.411.839.893 1.87 1.339 3.097 1.339 1.265 0 2.314-.439 3.148-1.317.834-.877 1.25-2.026 1.25-3.448 0-1.392-.416-2.519-1.25-3.382-.834-.864-1.888-1.295-3.163-1.295zm11.879-3.295h3.454v2.015c.375-.794.871-1.397 1.491-1.809a3.605 3.605 0 012.037-.617c.522 0 1.067.137 1.638.411l-1.254 3.456c-.472-.235-.861-.353-1.167-.353-.62 0-1.144.382-1.572 1.147-.428.765-.642 2.264-.642 4.5l.015.779v6.47h-4.001v-16h.001zm10.311-6.175h4.03v12.772l5.933-6.595h5.061l-6.918 7.667 7.745 8.33h-5.002l-6.819-7.373v7.374h-4.03V3.616zm32.477 15.337H136.71c.187 1.138.686 2.041 1.498 2.713.812.67 1.847 1.007 3.107 1.007 1.505 0 2.8-.524 3.882-1.574l3.395 1.588c-.846 1.197-1.86 2.08-3.041 2.654-1.181.574-2.583.86-4.207.86-2.519 0-4.571-.791-6.155-2.375-1.584-1.583-2.377-3.566-2.377-5.948 0-2.441.79-4.468 2.37-6.08 1.58-1.613 3.559-2.42 5.941-2.42 2.528 0 4.586.807 6.169 2.42 1.585 1.612 2.377 3.742 2.377 6.389l-.013.766zm-4.03-3.162c-.267-.891-.791-1.617-1.575-2.176-.784-.56-1.693-.838-2.728-.838-1.123 0-2.109.314-2.957.941-.532.392-1.025 1.083-1.478 2.073h8.738zm7.296-11.896h4.03v5.896h2.391v3.456h-2.391V25.79h-4.03V13.247h-2.067V9.79h2.067V3.895z" fill="#000"/><defs><linearGradient id="paint0_linear" x1="0" y1="18" x2="55.997" y2="18" gradientUnits="userSpaceOnUse"><stop stop-color="#EF4136"/><stop offset="1" stop-color="#BE1E2D"/></linearGradient></defs></svg>
